X:1
T:Connie in the Pool
C:Seamus Creagh
S:Polka apprise par Carole auprès de Kevin Ryan lors du stage du Bono en 2010.
R:Polka
M:2/4
L:1/8
K:Amaj
|: e>f ed | cd ec | d>e dc | Bc df |
   e>f ed | cd ec | de/d/ cB |1 A4 :|2 A2- Ae
|: ae c/B/A | GA Bc | d>c de | fe ce |
   ae c/B/A | GA Bc | de/d/ cB |1 A2- Ae :|2 A4 |
